svgs/sharp-light/display-chart-up.svg

<svg xmlns="http://www.w3.org/2000/svg" viewBox="0 0 576 512"><!--! Font Awesome Pro 6.6.0 by @fontawesome - https://fontawesome.com License - https://fontawesome.com/license (Commercial License) Copyright 2024 Fonticons, Inc. --><path d="M544 32l0 352-199.7 0c-.2 0-.4 0-.6 0l-111.5 0c-.2 0-.4 0-.6 0L32 384 32 32l512 0zM32 416l181.1 0-10.7 64L144 480l-16 0 0 32 16 0 72 0 144 0 72 0 16 0 0-32-16 0-58.4 0-10.7-64L544 416l32 0 0-32 0-352 0-32L544 0 32 0 0 0 0 32 0 384l0 32 32 0zm202.9 64l10.7-64 84.9 0 10.7 64-106.2 0zM368 96l-16 0 0 32 16 0 57.4 0L304 249.4l-68.7-68.7L224 169.4l-11.3 11.3-112 112L89.4 304 112 326.6l11.3-11.3L224 214.6l68.7 68.7L304 294.6l11.3-11.3L448 150.6l0 57.4 0 16 32 0 0-16 0-96 0-16-16 0-96 0z"/></svg>

<svg xmlns="http://www.w3.org/2000/svg" viewBox="0 0 576 512"><!--! Font Awesome Pro 6.4.0 by @fontawesome - https://fontawesome.com License - https://fontawesome.com/license (Commercial License) Copyright 2023 Fonticons, Inc. --><path d="M544 32V384H344.3c-.2 0-.4 0-.6 0H232.3c-.2 0-.4 0-.6 0H32V32H544zM32 416H213.1l-10.7 64H144 128v32h16 72H360h72 16V480H432 373.6l-10.7-64H544h32V384 32 0H544 32 0V32 384v32H32zm202.9 64l10.7-64h84.9l10.7 64H234.9zM368 96H352v32h16 57.4L304 249.4l-68.7-68.7L224 169.4l-11.3 11.3-112 112L89.4 304 112 326.6l11.3-11.3L224 214.6l68.7 68.7L304 294.6l11.3-11.3L448 150.6V208v16h32V208 112 96H464 368z"/></svg>
